X: 23130
T: Lavin's Favourite
R: reel
M: 4/4
K: Dmajor
A2FB ABdf|edfe fddB|A2FA ABdB|1 AFEG FDDB:|2 AFEG FDD2||
|:FAdA BAdA|(3Bcd ed cAAG|FAdA BAdB|1 AFEG FDDG:|2 AFEG FDD2||
A2FA ABdf|edfd edBd|A2FA ABdB|1 AFEG FDDB:|2 AFEG FDD2||
|:FAdA BAdA|Beed cAA2|1 FAdA BAdF|GFEG FDD2:|2 FAAc BAdB|AFEG FDD2||

